X: 805
T: Alan & Catherine's Wedding
R: jig
M: 6/8
K: Fmajor
|:AGF Bcd|cBA FAF|CEF EFc|BAF GAB|
AGF Bcd|cBA FAF|CEF B,FG|1 CGA BAG:|2 CGA Bcd||
|:edc fFA|cBA FAF|CEF EFc|BAF GAB|
cde fcd|cBA FAF|CEF B,FG|CGA Bcd:|
|:e2 c Bce|G cef2F|ABc BAF|CEc Gce|
gfe dcB|Ace f2F|(3ABc A BAF|1 CGE FAc:|2 CG E2<F2||

